svgs/snapchat.svg

<svg width="192" height="192" viewBox="0 0 192 192" fill="none" xmlns="http://www.w3.org/2000/svg"><path d="M95.918 22.002c-11.963-.087-24.145 4.54-32.031 13.717-6.995 7.405-9.636 17.901-9.284 27.868-.03 5.119.032 10.237.05 15.355-4.901-1.217-9.873-4.624-15.063-2.937-4.422 1.313-6.267 7.088-3.596 10.791 2.876 3.761 7.346 5.907 11.08 8.71 1.837 1.5 4.313 2.571 5.68 4.499-.001 4.62-2.425 8.897-4.722 12.786-5.597 8.802-14.342 15.531-23.705 20.18-2.39 1.035-4.59 4.144-2.473 6.499 3.862 3.622 9.327 4.778 14.195 6.486 2.047.64 5.078 1.34 4.886 4.084.335 2.923 2.205 6.066 5.492 6.078 7.873.91 16.289.522 23.345 4.741 6.917 4.006 14.037 8.473 22.255 8.96 8.188.767 16.623-.888 23.642-5.255 5.23-2.884 10.328-6.477 16.456-7.061 5.155-1.206 10.702-.151 15.685-2.072 3.193-1.367 2.762-5.244 4.104-7.808 2.532-1.747 5.77-1.948 8.59-3.102 3.687-1.47 8.335-2.599 10.268-6.413 1.148-3.038-2.312-4.698-4.453-5.88-11.38-5.874-21.631-14.921-26.121-27.191-.496-1.936-2.279-4.834.084-6.255 4.953-4.176 11.413-6.575 15.514-11.715 3.103-3.884.941-10.55-4.141-11.322-4.928-.78-9.525 1.893-14.152 3.127-.404-8.53.502-17.232-.776-25.746-2.429-13.808-13.514-25.157-26.813-29.124-4.521-1.401-9.266-2.037-13.996-2Z" stroke="#000" stroke-width="12" stroke-linejoin="round"/></svg>

<svg id="vector" xmlns="http://www.w3.org/2000/svg" width="192" height="192" viewBox="0 0 192 192"><path fill="#00000000" d="M95.918,22.001C83.955,21.915 71.773,26.542 63.887,35.719C56.892,43.124 54.251,53.62 54.603,63.587C54.573,68.706 54.635,73.824 54.654,78.942C49.751,77.725 44.78,74.318 39.59,76.005C35.168,77.317 33.323,83.093 35.994,86.797C38.869,90.557 43.34,92.703 47.075,95.507C48.911,97.006 51.387,98.077 52.754,100.005C52.753,104.625 50.329,108.902 48.032,112.791C42.435,121.593 33.69,128.322 24.327,132.971C21.937,134.006 19.736,137.115 21.854,139.47C25.716,143.092 31.181,144.248 36.049,145.956C38.096,146.596 41.127,147.296 40.935,150.04C41.27,152.963 43.14,156.106 46.427,156.118C54.299,157.028 62.716,156.64 69.772,160.859C76.689,164.865 83.809,169.332 92.027,169.819C100.215,170.586 108.65,168.931 115.669,164.564C120.899,161.68 125.997,158.087 132.125,157.503C137.28,156.297 142.827,157.352 147.81,155.431C151.003,154.064 150.572,150.187 151.914,147.623C154.446,145.876 157.684,145.675 160.504,144.521C164.191,143.051 168.839,141.922 170.772,138.108C171.92,135.07 168.46,133.41 166.319,132.228C154.939,126.354 144.688,117.307 140.198,105.037C139.702,103.101 137.919,100.203 140.282,98.782C145.235,94.606 151.695,92.207 155.796,87.067C158.899,83.183 156.737,76.517 151.655,75.745C146.727,74.966 142.13,77.638 137.503,78.872C137.099,70.342 138.005,61.64 136.727,53.126C134.298,39.318 123.213,27.969 109.914,24.002C105.393,22.601 100.648,21.965 95.918,22.001Z" stroke-linejoin="round" stroke-width="12" stroke="#000000" id="path_0"/></svg>
